img/ic-food.svg

<svg width="72" height="72" viewBox="0 0 72 72" fill="none" xmlns="http://www.w3.org/2000/svg">
<path fill-rule="evenodd" clip-rule="evenodd" d="M67.0002 32.6611C67.04 32.0595 67.0672 31.4549 67.0672 30.8435C67.0672 30.4615 67.0517 30.0843 67.0362 29.7062L67.0361 29.7033C66.3898 14.3028 52.7439 2 35.9947 2C19.2466 2 5.59966 14.3028 4.95434 29.7033C4.93782 30.0824 4.92324 30.4615 4.92324 30.8435C4.92324 31.4549 4.95045 32.0595 4.99127 32.6611H67.0002ZM20.4496 43.2764L15.2764 39.331L10.1002 43.2764L4.08632 38.6944L5.7589 36.3061L10.1002 39.6119L15.2773 35.6685L20.4506 39.6119L25.6258 35.6685L30.8039 39.6119L35.982 35.6685L41.1601 39.6119L46.3391 35.6685L51.5163 39.6119L56.6963 35.6695L61.8822 39.6129L66.2303 36.3052L67.9019 38.6953L61.8822 43.2754L56.6963 39.3301L51.5163 43.2764L46.3391 39.331L41.1601 43.2764L35.982 39.331L30.8039 43.2764L25.6258 39.331L20.4496 43.2764ZM4.01866 47.4026H67.9703C70.1803 47.4026 71.988 49.2883 71.988 51.5949V55.0009C71.988 57.3065 70.1794 59.1931 67.9693 59.1931H67.0655V60.2167C67.0655 65.5977 62.8457 70 57.6889 70H14.2991C9.14136 70 4.9225 65.5977 4.9225 60.2167V59.1931H4.01866C1.80864 59.1931 0 57.3065 0 55.0009V51.5949C0 49.2883 1.80864 47.4026 4.01866 47.4026ZM57.6899 67.0421C61.2965 67.0421 64.2306 63.9803 64.2306 60.2176L64.2296 59.1941H7.75742V60.2176C7.75742 63.9803 10.6925 67.0421 14.299 67.0421H57.6899ZM69.1535 55.0008C69.1535 55.6696 68.6112 56.2363 67.9698 56.2363H4.01912C3.37769 56.2363 2.83636 55.6706 2.83636 55.0008V51.5949C2.83636 50.9262 3.37866 50.3595 4.01912 50.3595H67.9698C68.6112 50.3595 69.1535 50.9252 69.1535 51.5949V55.0008ZM64.1985 29.7033C63.5464 15.9571 51.1464 4.9578 35.994 4.9578C20.8417 4.9578 8.44358 15.9571 7.78951 29.7033H64.1985Z" fill="#81B3D2"/>
<path d="M34.9579 19.29C36.0321 19.29 36.9029 18.3811 36.9029 17.26C36.9029 16.1388 36.0321 15.23 34.9579 15.23C33.8837 15.23 33.0129 16.1388 33.0129 17.26C33.0129 18.3811 33.8837 19.29 34.9579 19.29Z" fill="#81B3D2"/>
<path d="M27.1791 14.26C28.2538 14.26 29.1251 13.3511 29.1251 12.23C29.1251 11.1088 28.2538 10.2 27.1791 10.2C26.1043 10.2 25.2331 11.1088 25.2331 12.23C25.2331 13.3511 26.1043 14.26 27.1791 14.26Z" fill="#81B3D2"/>
<path d="M42.7367 14.26C43.8115 14.26 44.6827 13.3511 44.6827 12.23C44.6827 11.1088 43.8115 10.2 42.7367 10.2C41.662 10.2 40.7907 11.1088 40.7907 12.23C40.7907 13.3511 41.662 14.26 42.7367 14.26Z" fill="#81B3D2"/>
</svg>

<svg xmlns="http://www.w3.org/2000/svg" width="72" height="72" fill="none"><path fill="#81B3D2" fill-rule="evenodd" d="M67 32.661c.04-.602.067-1.206.067-1.818 0-.381-.015-.759-.03-1.137v-.003C66.39 14.303 52.743 2 35.994 2 19.247 2 5.6 14.303 4.955 29.703c-.017.38-.032.759-.032 1.14 0 .612.027 1.216.068 1.818h62.01ZM20.45 43.276l-5.174-3.945-5.176 3.945-6.014-4.582 1.673-2.388 4.341 3.306 5.177-3.944 5.174 3.944 5.175-3.944 5.178 3.944 5.178-3.944 5.178 3.944 5.18-3.944 5.176 3.944 5.18-3.943 5.186 3.944 4.348-3.308 1.672 2.39-6.02 4.58-5.186-3.945-5.18 3.946-5.177-3.945-5.179 3.945-5.178-3.945-5.178 3.945-5.178-3.945-5.176 3.945ZM4.019 47.403H67.97c2.21 0 4.018 1.885 4.018 4.192V55c0 2.306-1.809 4.192-4.019 4.192h-.903v1.024c0 5.38-4.22 9.783-9.377 9.783h-43.39c-5.158 0-9.377-4.402-9.377-9.783v-1.024H4.02C1.809 59.193 0 57.307 0 55.001v-3.406c0-2.307 1.809-4.192 4.019-4.192Zm53.67 19.64c3.608 0 6.542-3.063 6.542-6.825l-.001-1.024H7.757v1.024c0 3.762 2.936 6.824 6.542 6.824h43.39ZM69.154 55c0 .669-.542 1.235-1.183 1.235H4.02c-.642 0-1.184-.565-1.184-1.235v-3.406c0-.669.543-1.236 1.183-1.236h63.95c.642 0 1.184.566 1.184 1.236V55Zm-4.955-25.298C63.546 15.957 51.146 4.958 35.994 4.958c-15.152 0-27.55 11-28.204 24.745h56.408Z" clip-rule="evenodd"/><path fill="#81B3D2" d="M34.958 19.29c1.074 0 1.945-.909 1.945-2.03 0-1.121-.87-2.03-1.945-2.03-1.074 0-1.945.909-1.945 2.03 0 1.121.87 2.03 1.945 2.03ZM27.18 14.26c1.074 0 1.945-.909 1.945-2.03 0-1.121-.871-2.03-1.946-2.03s-1.946.909-1.946 2.03c0 1.121.871 2.03 1.946 2.03ZM42.737 14.26c1.075 0 1.946-.909 1.946-2.03 0-1.121-.871-2.03-1.946-2.03s-1.946.909-1.946 2.03c0 1.121.871 2.03 1.946 2.03Z"/></svg>
